X: 36645
T: Shannandoah Falls
R: hornpipe
M: 4/4
K: Amajor
|:"A"e2 ef edcB|ABcA "D"d3 d|"F#m"c2cd cBAc|"E"BAGF E2 cd|
"A"e2 ef edcB|AB (3cBA "D"d3 d|"F#m"cBAc "E"BA G2|1 "A"A3G ABcd:|2 "A"A3G ABAG||
|:"Bm"F4 B4|F2 A(B-B)A F2|"A"E2 cA BcAB|cAB(c-c)B A2|
"Bm"F4 B4|F2 A(B-B)fed|"A"cBAc "E7"BA G2|1 "A"A3G ABAG:|2 "A"A3GA2||

